src/Assets/icons/phone-outline.svg

<svg class="svg-icon" viewBox="0 0 24 24" fill="none" xmlns="http://www.w3.org/2000/svg">
<g id="Communication / Phone">
<path id="Vector" d="M9.50246 4.25722C9.19873 3.4979 8.46332 3 7.64551 3H4.89474C3.8483 3 3 3.8481 3 4.89453C3 13.7892 10.2108 21 19.1055 21C20.1519 21 21 20.1516 21 19.1052L21.0005 16.354C21.0005 15.5361 20.5027 14.8009 19.7434 14.4971L17.1069 13.4429C16.4249 13.1701 15.6483 13.2929 15.0839 13.7632L14.4035 14.3307C13.6089 14.9929 12.4396 14.9402 11.7082 14.2088L9.79222 12.2911C9.06079 11.5596 9.00673 10.3913 9.66895 9.59668L10.2363 8.9163C10.7066 8.35195 10.8305 7.57516 10.5577 6.89309L9.50246 4.25722Z" stroke="currentColor" stroke-width="2" stroke-linecap="round" stroke-linejoin="round"/>
</g>
</svg>

<svg class="svg-icon" viewBox="0 0 24 24" fill="none" xmlns="http://www.w3.org/2000/svg"><path d="M9.502 4.257A2 2 0 0 0 7.646 3H4.895A1.895 1.895 0 0 0 3 4.895C3 13.789 10.21 21 19.105 21A1.895 1.895 0 0 0 21 19.105v-2.751a2 2 0 0 0-1.257-1.857l-2.636-1.054a2 2 0 0 0-2.023.32l-.68.568a2.001 2.001 0 0 1-2.696-.122L9.792 12.29a2 2 0 0 1-.123-2.694l.567-.68a2 2 0 0 0 .322-2.024L9.502 4.257Z" stroke="currentColor" stroke-width="2" stroke-linecap="round" stroke-linejoin="round"/></svg>
